assets/src/images/icons/ic_tech.svg

<svg width="102" height="102" viewBox="0 0 102 102" fill="none" xmlns="http://www.w3.org/2000/svg">
<g filter="url(#filter0_d)">
<path fill-rule="evenodd" clip-rule="evenodd" d="M72 38.8065C72 39.9268 71.0881 40.8387 69.9677 40.8387H67.9355V42.1935H69.2903V43.5484H65.9032V51.6774H62.7153C62.92 52.1015 63.0662 52.5553 63.1367 53.0323H67.2581V59.8065H72V72H61.1613V59.8065H65.9032V54.3871H63.1393C62.8089 56.681 60.8355 58.4516 58.4516 58.4516H43.5484C40.9343 58.4516 38.8065 56.3238 38.8065 53.7097H37.4516V59.8065H41.5161C42.6365 59.8065 43.5484 60.7184 43.5484 61.8387V67.9355H44.9032V69.9677C44.9032 71.0881 43.9913 72 42.871 72H32.0323C30.9119 72 30 71.0881 30 69.9677V67.9355H31.3548V61.8387C31.3548 60.7184 32.2668 59.8065 33.3871 59.8065H36.0968V52.3548H39.0191C39.166 51.865 39.3896 51.4111 39.6777 51H34.7419V47.6129H32.0323C30.9119 47.6129 30 46.701 30 45.5806V32.0323C30 30.9119 30.9119 30 32.0323 30H38.8065C39.9268 30 40.8387 30.9119 40.8387 32.0323V45.5806C40.8387 46.701 39.9268 47.6129 38.8065 47.6129H36.0968V49.6452H41.1185C41.5542 49.3845 42.0338 49.1867 42.5485 49.0762C43.3403 46.9977 45.3647 45.5806 47.6129 45.5806C48.3757 45.5806 49.1275 45.7434 49.8228 46.0556C50.8098 44.5129 52.5331 43.5484 54.3871 43.5484C57.3753 43.5484 59.8065 45.9796 59.8065 48.9677C59.8065 49.0342 59.8051 49.1004 59.8018 49.1689C60.5467 49.3911 61.2122 49.795 61.7527 50.3226H64.5484V43.5484H61.1613V42.1935H62.5161V40.8387H60.4839C59.3636 40.8387 58.4516 39.9268 58.4516 38.8065V32.0323C58.4516 30.9119 59.3636 30 60.4839 30H69.9677C71.0881 30 72 30.9119 72 32.0323V38.8065ZM31.3548 40.8387H39.4839V34.0645H31.3548V40.8387ZM38.8065 31.3548H32.0323C31.6585 31.3548 31.3548 31.6585 31.3548 32.0323V32.7097H39.4839V32.0323C39.4839 31.6585 39.1802 31.3548 38.8065 31.3548ZM31.3548 42.1935V45.5806C31.3548 45.9544 31.6585 46.2581 32.0323 46.2581H38.8065C39.1802 46.2581 39.4839 45.9544 39.4839 45.5806V42.1935H31.3548ZM42.871 70.6452C43.2447 70.6452 43.5484 70.3415 43.5484 69.9677V69.2903H31.3548V69.9677C31.3548 70.3415 31.6585 70.6452 32.0323 70.6452H42.871ZM42.1935 67.9355V61.8387C42.1935 61.4649 41.8899 61.1613 41.5161 61.1613H33.3871C33.0133 61.1613 32.7097 61.4649 32.7097 61.8387V67.9355H42.1935ZM62.5161 66.5806V70.6452H70.6452V66.5806H62.5161ZM62.5161 65.2258H70.6452V61.1613H62.5161V65.2258ZM43.5484 57.0968H58.4516C60.3191 57.0968 61.8387 55.5772 61.8387 53.7097C61.8387 52.0535 60.6036 50.616 58.9656 50.3659L58.2958 50.2644L58.398 49.5942C58.4347 49.3538 58.4516 49.1546 58.4516 48.9677C58.4516 46.7261 56.6287 44.9032 54.3871 44.9032C52.8189 44.9032 51.3748 45.8244 50.7079 47.2517L50.3854 47.9407L49.7388 47.5418C49.0951 47.1455 48.3608 46.9355 47.6129 46.9355C45.8178 46.9355 44.2129 48.1405 43.7118 49.8661L43.5864 50.2961L43.1419 50.3497C41.443 50.5528 40.1613 51.9973 40.1613 53.7097C40.1613 55.5772 41.6809 57.0968 43.5484 57.0968ZM69.9677 31.3548H60.4839C60.1101 31.3548 59.8065 31.6585 59.8065 32.0323V36.7742H70.6452V32.0323C70.6452 31.6585 70.3415 31.3548 69.9677 31.3548ZM59.8065 38.129V38.8065C59.8065 39.1802 60.1101 39.4839 60.4839 39.4839H69.9677C70.3415 39.4839 70.6452 39.1802 70.6452 38.8065V38.129H59.8065ZM63.871 42.1935H66.5806V40.8387H63.871V42.1935ZM36.7742 43.5484H34.0645V44.9032H36.7742V43.5484ZM63.871 62.5161H65.2258V63.871H63.871V62.5161ZM69.2903 67.9355H67.9355V69.2903H69.2903V67.9355ZM66.5806 62.5161H69.2903V63.871H66.5806V62.5161ZM66.5806 69.2903V67.9355H63.871V69.2903H66.5806Z" fill="#0EF5FF"/>
</g>
<defs>
<filter id="filter0_d" x="0" y="0" width="102" height="102" filterUnits="userSpaceOnUse" color-interpolation-filters="sRGB">
<feFlood flood-opacity="0" result="BackgroundImageFix"/>
<feColorMatrix in="SourceAlpha" type="matrix" values="0 0 0 0 0 0 0 0 0 0 0 0 0 0 0 0 0 0 127 0"/>
<feOffset/>
<feGaussianBlur stdDeviation="15"/>
<feColorMatrix type="matrix" values="0 0 0 0 0.054902 0 0 0 0 0.960784 0 0 0 0 1 0 0 0 0.8 0"/>
<feBlend mode="normal" in2="BackgroundImageFix" result="effect1_dropShadow"/>
<feBlend mode="normal" in="SourceGraphic" in2="effect1_dropShadow" result="shape"/>
</filter>
</defs>
</svg>

<svg width="102" height="102" viewBox="0 0 102 102" fill="none" xmlns="http://www.w3.org/2000/svg"><g filter="url(#filter0_d)"><path fill-rule="evenodd" clip-rule="evenodd" d="M72 38.806c0 1.12-.912 2.033-2.032 2.033h-2.032v1.355h1.354v1.354h-3.387v8.13h-3.188c.205.424.351.877.422 1.354h4.121v6.775H72V72H61.161V59.806h4.742v-5.419H63.14a4.745 4.745 0 01-4.687 4.065H43.548a4.748 4.748 0 01-4.742-4.742h-1.354v6.096h4.064c1.12 0 2.032.912 2.032 2.033v6.097h1.355v2.032c0 1.12-.912 2.032-2.032 2.032H32.032A2.035 2.035 0 0130 69.968v-2.032h1.355v-6.097c0-1.12.912-2.032 2.032-2.032h2.71v-7.452h2.922c.147-.49.37-.944.659-1.355h-4.936v-3.387h-2.71A2.035 2.035 0 0130 45.58V32.032c0-1.12.912-2.032 2.032-2.032h6.775c1.12 0 2.032.912 2.032 2.032v13.549c0 1.12-.912 2.032-2.032 2.032h-2.71v2.032h5.021a4.71 4.71 0 011.43-.569 5.45 5.45 0 015.065-3.495c.763 0 1.514.162 2.21.475a5.44 5.44 0 014.564-2.508 5.426 5.426 0 015.415 5.62c.745.223 1.41.627 1.95 1.155h2.796v-6.775h-3.387v-1.355h1.355V40.84h-2.032a2.035 2.035 0 01-2.032-2.032v-6.775c0-1.12.912-2.032 2.032-2.032h9.484c1.12 0 2.032.912 2.032 2.032v6.775zM31.355 40.84h8.129v-6.774h-8.13v6.774zm7.451-9.484h-6.774a.678.678 0 00-.677.677v.678h8.129v-.678a.678.678 0 00-.678-.677zm-7.451 10.838v3.388c0 .373.303.677.677.677h6.775a.678.678 0 00.677-.677v-3.388h-8.13zM42.87 70.645a.678.678 0 00.677-.677v-.678H31.355v.678c0 .373.303.677.677.677h10.839zm-.678-2.71V61.84a.678.678 0 00-.677-.678h-8.129a.678.678 0 00-.677.678v6.097h9.483zm20.323-1.354v4.064h8.13v-4.064h-8.13zm0-1.355h8.13V61.16h-8.13v4.065zm-18.968-8.13h14.904a3.391 3.391 0 003.387-3.386 3.406 3.406 0 00-2.873-3.344l-.67-.102.102-.67c.037-.24.054-.44.054-.626a4.069 4.069 0 00-4.065-4.065 4.079 4.079 0 00-3.68 2.349l-.322.689-.646-.4a4.053 4.053 0 00-2.126-.605 4.084 4.084 0 00-3.901 2.93l-.126.43-.444.054a3.385 3.385 0 00.406 6.747zm26.42-25.741h-9.484a.678.678 0 00-.678.677v4.742h10.84v-4.742a.678.678 0 00-.678-.677zm-10.162 6.774v.678c0 .373.304.677.678.677h9.484a.678.678 0 00.677-.678v-.677H59.807zm4.065 4.065h2.71v-1.355h-2.71v1.355zm-27.097 1.354h-2.71v1.355h2.71v-1.355zM63.87 62.516h1.355v1.355H63.87v-1.355zm5.42 5.42h-1.355v1.354h1.354v-1.355zm-2.71-5.42h2.71v1.355h-2.71v-1.355zm0 6.774v-1.355h-2.71v1.355h2.71z" fill="#0EF5FF"/></g><defs><filter id="filter0_d" x="0" y="0" width="102" height="102" filterUnits="userSpaceOnUse" color-interpolation-filters="sRGB"><feFlood flood-opacity="0" result="BackgroundImageFix"/><feColorMatrix in="SourceAlpha" values="0 0 0 0 0 0 0 0 0 0 0 0 0 0 0 0 0 0 127 0"/><feOffset/><feGaussianBlur stdDeviation="15"/><feColorMatrix values="0 0 0 0 0.054902 0 0 0 0 0.960784 0 0 0 0 1 0 0 0 0.8 0"/><feBlend in2="BackgroundImageFix" result="effect1_dropShadow"/><feBlend in="SourceGraphic" in2="effect1_dropShadow" result="shape"/></filter></defs></svg>
